Obsidian/actions/24s/format-text-direction-horizontal.svg

<svg height="24" viewBox="0 0 24 24" width="24" xmlns="http://www.w3.org/2000/svg"><path d="m3.6875 3-2.6875 7h.84375l.84375-2.21875h2.78125l.8125 2.21875h.84375l-2.59375-7zm3.3125 0v1h4v-1zm6 0v4l2-2zm-8.90625.84375c.0692.2393.42935 1.3197 1.09375 3.25h-2.25zm3.90625 2.15625v1h3v-1zm1 3v1h2v-1zm4 0v4l2-2zm-12 3v1h10v-1z" fill="#bebebe" transform="translate(4 4)"/></svg>

<svg xmlns="http://www.w3.org/2000/svg" width="24" height="24" viewBox="0 0 24 24">
 <defs>
  <style id="current-color-scheme" type="text/css">
   .ColorScheme-Text { color:#bebebe; } .ColorScheme-Highlight { color:#4285f4; }
  </style>
 </defs>
 <path style="fill:currentColor" class="ColorScheme-Text" d="M 3.6875 3 L 1 10 L 1.84375 10 L 2.6875 7.78125 L 5.46875 7.78125 L 6.28125 10 L 7.125 10 L 4.53125 3 L 3.6875 3 z M 7 3 L 7 4 L 11 4 L 11 3 L 7 3 z M 13 3 L 13 7 L 15 5 L 13 3 z M 4.09375 3.84375 C 4.16295 4.08305 4.5231 5.16345 5.1875 7.09375 L 2.9375 7.09375 L 4.09375 3.84375 z M 8 6 L 8 7 L 11 7 L 11 6 L 8 6 z M 9 9 L 9 10 L 11 10 L 11 9 L 9 9 z M 13 9 L 13 13 L 15 11 L 13 9 z M 1 12 L 1 13 L 11 13 L 11 12 L 1 12 z" transform="translate(4 4)"/>
</svg>
